X:249
T:Mattraim Hornpipe. Le4.249
T:Savage Hornpipe,aka. Le4.249
L:1/8
B:L.Leadley MS#4 c1850
Z:vmp.Mike Hicken 2016 www.village-music-project.org.uk
N: This is tune 40 of The Fiddler of Helperby.
N: These notes are quavers in the original.
M:C|
Q:1/4=120
K:Bb
"*"F2|BABc Bcde|fgab fdcB|G2G2 GABG|FEEG FDB,D|
(ED).E.F (GF).G.A|(BA).B.c (dc).d.e|fdcB gdcA|B2b2b2 :|
|:"*"f2|dfcf dfcf|dfBf dB B2|GA B2 GA B2|FDB,D FDB,D |
(ED).E.F (GF).G.A|(BA).Bc (dc).d.e|fdcB gecA|B2 [B2b2][B2b2] :|

